X: 25
T:Lumps of Plum Pudding
M:6/8
L:1/8
O:Duns Tew
P:A(AB2)4
K:G
P:A
B>AG gfg|dBG G2A|BAG GAB|AFD D2c|
BAG  gfg|def g2e|dBG ABc|d2B G3 |]
P:B
dfg  dfg|dfg G2B|cAB cAB|cAB D2d|
BAG  gfg|def g2e|dBG ABc|d2B G3 |]
</abc>
